material/.icons/material/trophy-variant.svg

<svg xmlns="http://www.w3.org/2000/svg" viewBox="0 0 24 24"><path d="M17 4V2H7v2H2v7c0 1.1.9 2 2 2h3.1a5.01 5.01 0 003.9 3.9v2.18C8 19.54 8 22 8 22h8s0-2.46-3-2.92V16.9a5.01 5.01 0 003.9-3.9H20c1.1 0 2-.9 2-2V4h-5M4 11V6h3v5H4m16 0h-3V6h3v5z"/></svg>

<?xml version="1.0" encoding="UTF-8"?><!DOCTYPE svg PUBLIC "-//W3C//DTD SVG 1.1//EN" "http://www.w3.org/Graphics/SVG/1.1/DTD/svg11.dtd"><svg xmlns="http://www.w3.org/2000/svg" xmlns:xlink="http://www.w3.org/1999/xlink" version="1.1" id="mdi-trophy-variant" width="24" height="24" viewBox="0 0 24 24"><path d="M17 4V2H7V4H2V11C2 12.1 2.9 13 4 13H7.1C7.5 14.96 9.04 16.5 11 16.9V19.08C8 19.54 8 22 8 22H16C16 22 16 19.54 13 19.08V16.9C14.96 16.5 16.5 14.96 16.9 13H20C21.1 13 22 12.1 22 11V4H17M4 11V6H7V11L4 11M20 11L17 11V6H20L20 11Z" /></svg>
